X:1
T:Menuette frn Sdra Vi
R:Menuett
O:Sdra Vi, Smland
B:50 Smlndska ltar
N:Ur gammal handskrift frn Sdra Vi
Z:Jonas Brunskog
N:nr. 17
M:3/4
L:1/8
K:G
|:G4 BG|((3FGA) A2 G2|B4 dB|((3ABc) c2 B2|
(3dBd (3gdg b2|(3cAc (3fcf a2|ca c2 B2|TB4 A2:|
|:d4 fa|gc c4|B/G/A/B/ c/d/e/f/ gB|(BA) A4|
(cD) (cD) (cD)|(Bd) (dg) (gb)|(cD) (cD) (cD)|(Bd) (dg) (gb)|
e3 (g/f/ a/g/f/e/) |d2 f2 g>d|((3edc B2) A2|G6:|
